X: 174
T: Norman's Jig
T: Jig, E
C: Ray Ellis
L: 1/16
M: 6/8
K: E
|: e6 E2G2B2| e2g2f2 e2f2g2| a6 g6| f2d2B2 B2c2d2| e6 E2G2B2| e2g2f2 e2f2g2| a2f2d2 B2c2d2| [1 e6 e2g2f2:| [2 e6 e2g2a2|]
|: b6 e4a2| g2b2a2 g2f2e2| a6 g6| [1 f2d2B2 B2g2a2| b6 e4a2| g2b2a2 g2f2e2| f2d2B2 B2c2d2| e6 e2g2a2:| 
[2 f2d2B2 B2c2d2| e6 E2G2B2| e2g2f2 e2f2g2| a2f2d2 B2c2d2| e6 e2g2f2|] 
D: Ray Ellis, More Like Me!, REC001, 1999
